src/svg/fold.svg

<svg height="16" width="14" xmlns="http://www.w3.org/2000/svg" viewBox="0 0 14 16">
  <path d="M7 9l3 3H8v3H6V12H4l3-3z m3-6H8V0H6v3H4l3 3 3-3z m4 2c0-0.55-0.45-1-1-1H10.5l-1 1h3L10.5 7H3.5L1.5 5h3l-1-1H1c-0.55 0-1 0.45-1 1l2.5 2.5L0 10c0 0.55 0.45 1 1 1h2.5l1-1H1.5l2-2h7l2 2H9.5l1 1h2.5c0.55 0 1-0.45 1-1L11.5 7.5l2.5-2.5z" />
</svg>

<?xml version="1.0" encoding="UTF-8" standalone="no"?>
<svg width="14px" height="16px" viewBox="0 0 14 16" version="1.1" xmlns="http://www.w3.org/2000/svg" xmlns:xlink="http://www.w3.org/1999/xlink">
    <!-- Generator: Sketch 3.7.1 (28215) - http://www.bohemiancoding.com/sketch -->
    <title>fold</title>
    <desc>Created with Sketch.</desc>
    <defs></defs>
    <g id="Octicons" stroke="none" stroke-width="1" fill="none" fill-rule="evenodd">
        <g id="fold" fill="#000000">
            <path d="M7,9 L10,12 L8,12 L8,15 L6,15 L6,12 L4,12 L7,9 L7,9 Z M10,3 L8,3 L8,0 L6,0 L6,3 L4,3 L7,6 L10,3 L10,3 Z M14,5 C14,4.45 13.55,4 13,4 L10.5,4 L9.5,5 L12.5,5 L10.5,7 L3.5,7 L1.5,5 L4.5,5 L3.5,4 L1,4 C0.45,4 0,4.45 0,5 L2.5,7.5 L0,10 C0,10.55 0.45,11 1,11 L3.5,11 L4.5,10 L1.5,10 L3.5,8 L10.5,8 L12.5,10 L9.5,10 L10.5,11 L13,11 C13.55,11 14,10.55 14,10 L11.5,7.5 L14,5 L14,5 Z" id="Shape"></path>
        </g>
    </g>
</svg>
